public/icons/tokens/ftm.svg

<svg width="256" height="256" viewBox="0 0 256 256" fill="none" xmlns="http://www.w3.org/2000/svg">
<path d="M128 256C198.692 256 256 198.692 256 128C256 57.3075 198.692 0 128 0C57.3075 0 0 57.3075 0 128C0 198.692 57.3075 256 128 256Z" fill="#1969FF"/>
<path d="M120.238 40.7051C124.551 38.4316 131.112 38.4316 135.425 40.7051L179.429 63.9039C182.026 65.273 183.452 67.3133 183.708 69.4196H183.75V186.028C183.693 188.325 182.253 190.607 179.429 192.096L135.425 215.295C131.112 217.568 124.551 217.568 120.238 215.295L76.2341 192.096C73.4219 190.614 72.0722 188.315 72.0054 186.028C71.9985 185.793 71.9979 185.599 72.0052 185.44L72.0054 70.2046C71.9988 70.0426 71.9988 69.8812 72.0052 69.7205L72.0054 69.4196H72.0251C72.2205 67.29 73.5822 65.3018 76.2341 63.9039L120.238 40.7051ZM176.75 134.25L135.411 156.115C131.105 158.393 124.553 158.393 120.247 156.115L79 134.299V185.667L120.247 207.368C122.684 208.672 125.219 209.943 127.687 209.998L127.829 210C130.292 210.008 132.683 208.756 135.108 207.57L176.75 185.48V134.25ZM65.106 183.5C65.106 187.97 65.6209 190.908 66.6433 192.978C67.4907 194.694 68.7622 196.005 71.0838 197.6L71.2163 197.691C71.7258 198.037 72.2871 198.4 72.9703 198.827L73.776 199.325L76.25 200.831L72.7016 206.75L69.9325 205.063L69.4671 204.774C68.6664 204.276 68.0028 203.847 67.3838 203.426C60.7671 198.926 58.2994 194.019 58.2507 183.811L58.25 183.5H65.106ZM124.5 103.25C124.18 103.36 123.88 103.488 123.606 103.633L79.6691 126.906C79.623 126.93 79.5791 126.955 79.5372 126.978L79.5 127L79.569 127.04L79.6691 127.094L123.606 150.367C123.88 150.512 124.18 150.64 124.5 150.75V103.25ZM131.5 103.25V150.75C131.82 150.64 132.121 150.512 132.394 150.367L176.331 127.094C176.377 127.07 176.421 127.045 176.463 127.022L176.5 127L176.431 126.96L176.331 126.906L132.394 103.633C132.121 103.488 131.82 103.36 131.5 103.25ZM176.75 77.75L137.25 98.5L176.75 119.25V77.75ZM79 77.75V119.25L118.5 98.5L79 77.75ZM132.356 46.9068C130.069 45.6977 125.931 45.6977 123.644 46.9068L79.6693 70.1559C79.6231 70.1804 79.5791 70.2045 79.5372 70.2285L79.5 70.25L79.5691 70.2895L79.6693 70.344L123.644 93.5931C125.931 94.8023 130.069 94.8023 132.356 93.5931L176.331 70.344C176.377 70.3195 176.421 70.2955 176.463 70.2717L176.5 70.25L176.431 70.2105L176.331 70.1559L132.356 46.9068ZM183.298 49.25L186.068 50.9373L186.533 51.2256C187.334 51.7242 187.997 52.1526 188.616 52.5737C195.233 57.0744 197.701 61.9813 197.749 72.189L197.75 72.5H190.894C190.894 68.0296 190.379 65.0917 189.357 63.0217C188.509 61.3062 187.238 59.9951 184.916 58.3998L184.784 58.3092C184.274 57.9626 183.713 57.5995 183.03 57.1729L182.224 56.675L179.75 55.1687L183.298 49.25Z" fill="white"/>
</svg>

<svg width="256" height="256" fill="none" xmlns="http://www.w3.org/2000/svg"><path d="M128 256c70.692 0 128-57.308 128-128C256 57.308 198.692 0 128 0 57.308 0 0 57.307 0 128c0 70.692 57.307 128 128 128Z" fill="#1969FF"/><path d="M120.238 40.705c4.313-2.273 10.874-2.273 15.187 0l44.004 23.199c2.597 1.369 4.023 3.41 4.279 5.516h.042v116.608c-.057 2.297-1.497 4.579-4.321 6.068l-44.004 23.199c-4.313 2.273-10.874 2.273-15.187 0l-44.004-23.199c-2.812-1.482-4.162-3.781-4.229-6.068a8.057 8.057 0 0 1 0-.588V70.205a6.012 6.012 0 0 1 0-.484v-.301h.02c.195-2.13 1.557-4.118 4.21-5.516l44.003-23.199Zm56.512 93.545-41.339 21.865c-4.306 2.278-10.858 2.278-15.164 0L79 134.299v51.368l41.247 21.701c2.437 1.304 4.972 2.575 7.44 2.63l.142.002c2.463.008 4.854-1.244 7.279-2.43l41.642-22.09v-51.23ZM65.106 183.5c0 4.47.515 7.408 1.537 9.478.848 1.716 2.12 3.027 4.44 4.622l.133.091c.51.346 1.071.709 1.754 1.136l.806.498 2.474 1.506-3.548 5.919-2.77-1.687-.465-.289a60.7 60.7 0 0 1-2.083-1.348c-6.617-4.5-9.085-9.407-9.133-19.615l-.001-.311h6.856Zm59.394-80.25c-.32.11-.62.238-.894.383l-43.937 23.273-.132.072-.037.022.069.04.1.054 43.937 23.273c.274.145.574.273.894.383v-47.5Zm7 0v47.5c.32-.11.621-.238.894-.383l43.937-23.273.132-.072.037-.022-.069-.04-.1-.054-43.937-23.273a6.228 6.228 0 0 0-.894-.383Zm45.25-25.5-39.5 20.75 39.5 20.75v-41.5Zm-97.75 0v41.5l39.5-20.75L79 77.75Zm53.356-30.843c-2.287-1.21-6.425-1.21-8.712 0L79.669 70.156l-.132.072-.037.022.07.04.1.054 43.974 23.25c2.287 1.208 6.425 1.208 8.712 0l43.975-23.25.132-.072.037-.022-.069-.04-.1-.054-43.975-23.25Zm50.942 2.343 2.77 1.687.465.289c.801.498 1.464.927 2.083 1.348 6.617 4.5 9.085 9.407 9.133 19.615l.001.311h-6.856c0-4.47-.515-7.408-1.537-9.478-.848-1.716-2.119-3.027-4.441-4.622l-.132-.09a53.84 53.84 0 0 0-1.754-1.137l-.806-.498-2.474-1.506 3.548-5.919Z" fill="#fff"/></svg>
